X:606
T:Miss Forbes Farewell To Banff
C:Joe Buchanan's Scottish Tome - Page 175.1
I:175 1
Z:Carl Allison
R:Reel
L:1/8
M:4/4
K:A
AB | "A"c2 (ce) "E7"dcBA | "A"c2 e2 "D"fgaf | "A"e2 (ef) "F#m"ecAB | "B7"c2 B2 "E7"B2 AB |
"A"c2 (ce) "E7"dcBA | "A"cAce "D"fgaf | "A"e2 (af) "E7"ecAB | "A"c2 A2 A2 :|
e2 | "A"a2 (ab) agfe | "D"fefg a2 (gf) | "A"e2 (ef) "F#m"ecAB | "B7"c2 B2 "E7"B2 e2 |
"A"a2 (ab) agfe | "D"fefg "D#dim"a2 gf | "A"e2 (af) "E7"ecAB | "A"c2 A2 A2 e2 |
"A"a2 (ab) agfe | "D"fefg a2 (gf) | "A"e2 (ef) "F#m"ecAc | "B7"c2 B2 "E7"B2 (AB) |
"A"c2 (ce) "E7"dcBA | "A7"cAce "D"fgaf | "F#m"e2 (af) "E7"ecAB | "A"c2 "D"A2 "A"A2 |]

